X:9
T: The Fiddle in the Trunk
C: Larry Cusick
M: C|
K: D
aA~A2 cABc | BAAF EFAB | aA~A2 cABc | BAFE A4 |
aA~A2 cABc | BAAF EFAB | d2 fd c2 ec | BABc A4 :|
ae~e2 aebe | aege fede | gede geae | Bdeg gfeg |
ae~e2 aebe | aege fede | g2dg Bdea | gedB A4 :|
